X: 18278
T: Humours Of Scarriff, The
R: reel
M: 4/4
K: Ddorian
||FAde f2ed|cAGc AcGc|Adde f2ed|cAGE EDD2|
Adde f2ed|cAGc (3ABc G2|Adde f2ed|cAGE EDD2||
ecgc acgc|ecgc eaag|ecgc acgc|edcd edd2|
ecgc acgc|edcd egg2|abag eged|cAGE EDD2||

